storage/app/icons/tabler/filled/chart-funnel.svg

<!--
unicode: "100db"
version: "3.25"
-->
<svg
  xmlns="http://www.w3.org/2000/svg"
  width="24"
  height="24"
  viewBox="0 0 24 24"
  fill="currentColor"
>
  <path d="M17.72 16l-1.315 3.948a3 3 0 0 1 -2.847 2.052h-3.116a3 3 0 0 1 -2.847 -2.052l-1.315 -3.948zm2 -6l-1.333 4h-12.774l-1.333 -4zm-.106 -8a2 2 0 0 1 1.896 2.632l-1.123 3.368h-16.774l-1.123 -3.368a2 2 0 0 1 1.72 -2.624l.177 -.008z" />
</svg>

<svg xmlns="http://www.w3.org/2000/svg" width="24" height="24" fill="currentColor" viewBox="0 0 24 24"><path d="m17.72 16-1.315 3.948A3 3 0 0 1 13.558 22h-3.116a3 3 0 0 1-2.847-2.052L6.28 16zm2-6-1.333 4H5.613L4.28 10zm-.106-8a2 2 0 0 1 1.896 2.632L20.387 8H3.613L2.49 4.632a2 2 0 0 1 1.72-2.624L4.387 2z"/></svg>
